!!!COM: Gabriel Faure/
!!!CNT: Francais
!!!TXO: Francais
!!!OTL: Aurore
!!!OPS: Opus 39
!!!ONM: No. 1
!!!LYR: Armand Silvestre
!!!ENC: Jacob Pegg
!!!YOR: Album of Twenty Songs (Vingt Me/lodies,) Volume II
!!!YOR: Edward B. Marks Music Corporation, RCA Building, Radio
!!!YOR: City, New York 20, N.Y.
!!!ODT: 1884/
!!NB: Vocal melody and text only encoded.
!!NB: First instance of melodic material only encoded.
**kern	**silbe
*clef G2	*
*k[f#]	*
*M4/4	*
*MM76	*
!!created: 2/10/04 23:45
!!proofed and posted: 2/13/04 0:02
!!edit time: 49 min.
!! Prior song 'La Fe/e aux Chansons,' Op. 27, No. 1, skipped 
!! due to excessive length (>100 mm.)
=1	=1
1r	.
=2	=2
4r	.
{8b	{Des
8g	jar-
4d	-dins
8e	de
8f#	la
=3	=3
4.g	nuit
8a	s'en-
8b	-vo-
8dd	-lent
8ee	les
8cc	e/-
=4	=4
(4b	-toi-
4a)	|
[4g	les
8g]}	|}
8r	.
=5	=5
4r	.
8r	.
{8b	{A-
8e	-beil-
8f#	-les
8g	d'or
8b	qu'at-
=6	=6
8e	-tire
8g	un
8b	in-
8dd	-vi-
8cc#	-si-
8b	-ble
[4a	miel
=7	=7
4a_	|
8a]}	|}
8r	.
4r	.
8r	.
{8dd	{Et
=8	=8
4.dd	l'au-
8ee	-be, au
4.cc	loin,
8g	ten-
=9	=9
4a	-dant
8b	la
8cc	can-
4ffn	-deur
8ee	de
8b	ses
=10	=10
*M2/4	*
2dd	toi-
=11	=11
*M4/4	*
8dd}	-les.}
8r	.
{4gg	{tra-
8ff#	-me
8ee	de
8dd	fils
8b	d'ar-
=12	=12
8a	-gent
8a	le
8b	man-
8d	-teau
4d	bleu
(8e	du
8f#)	|
=13	=13
*M3/4	*
[2.g	ciel.
=14	=14
4g]}	|}
4r	.
4r	.
=15	=15
*k[b-e-]	*
2r	.
4r	.
=16	=16
{8b-	{Du
8g	jar-
4d	-din
8g	de
8b-	mon
=17	=17
2cc	coeur
4cc	qu'un
=18	=18
8b-	re^-
8g	-ve
4d	lent
(8g	en-
8b-)	|
=19	=19
2dd	-i-
8dd}	-vre,}
{8dd	{S'en-
=20	=20
4.ee-	-vo-
8cc-	-lent
8b-	mes
8a-	de/-
=21	=21
2g-}	-sirs}
{8g-	{sur
8a-	les
=22	=22
2b-	pas
8b-	du
8an	ma-
=23	=23
[2g	-tin.
8g]}	|}
8r	.
=24	=24
{4b-	{Com-
8g	-me un
8d	es-
8g	-saim
8b-	le/-
=25	=25
[2a	-ger
8a]}	|}
{8a	{qu'a\
=26	=26
8g	l'ho-
8a	-ri-
4.b-	-zon
8dd	de
=27	=27
4cc#	cui-
8cc#}	-vre,}
8r	.
{4cc#	{ap-
=28	=28
4.dd	-pel-
8b-	-le un
8a	chant
8g	plain-
=29	=29
2f}	-tif,}
{8f	{e/-
8g	-ter-
=30	=30
2a-	-nel
8b-	et
8cc	loin-
=31	=31
*k[f#]	*
[2.dd	-tain.
=32	=32
2dd]}	|}
{4b	{Ils
=33	=33
8d	vo-
8d	-lent
8e	a\
8f#	tes
4g	pieds,
=34	=34
4a	as-
8b	-tres
8dd	chas-
8ee	-se/s
8cc	des
=35	=35
*M4/4	*
(4b	nu-
4a)	|
[4g	-es,
8g]}	|}
8r	.
!!repeat of material at m. 5 until end at m. 55
*-	*-
